assets/svg/icon_profile_notification_on.svg

<svg width="24" height="24" viewBox="0 0 24 24" fill="none" xmlns="http://www.w3.org/2000/svg">
<g id="icon/profile/notification_on">
<path id="Vector" d="M18.5992 9.33229C18.5992 9.00092 18.3306 8.73229 17.9992 8.73229C17.6679 8.73229 17.3992 9.00092 17.3992 9.33229H18.5992ZM18.6153 12.0001L18.1144 12.3304L18.6153 12.0001ZM19.5997 13.4933L19.0987 13.8235L19.5997 13.4933ZM4.40032 13.4933L3.89938 13.163L3.89938 13.163L4.40032 13.4933ZM5.38471 12.0001L4.88377 11.6699H4.88377L5.38471 12.0001ZM18.2486 17.1423L18.089 16.5639H18.089L18.2486 17.1423ZM5.75143 17.1423L5.91095 16.5639H5.91095L5.75143 17.1423ZM12 3.86563C12.3314 3.86563 12.6 3.597 12.6 3.26562C12.6 2.93425 12.3314 2.66562 12 2.66562V3.86563ZM8.70596 17.7905C8.59081 17.4797 8.24557 17.3212 7.93485 17.4364C7.62413 17.5515 7.46559 17.8967 7.58075 18.2075L8.70596 17.7905ZM16.4193 18.2075C16.5344 17.8967 16.3759 17.5515 16.0652 17.4364C15.7544 17.3212 15.4092 17.4797 15.294 17.7905L16.4193 18.2075ZM19.5354 4.04579C19.7697 3.81148 19.7697 3.43158 19.5354 3.19726C19.3011 2.96295 18.9212 2.96295 18.6868 3.19726L19.5354 4.04579ZM16 6.73264L15.5757 7.1569C15.8101 7.39122 16.1899 7.39122 16.4243 7.1569L16 6.73264ZM14.6465 4.5306C14.4122 4.29628 14.0323 4.29628 13.798 4.5306C13.5636 4.76491 13.5636 5.14481 13.798 5.37913L14.6465 4.5306ZM17.3992 9.33229V9.94251H18.5992V9.33229H17.3992ZM18.1144 12.3304L19.0987 13.8235L20.1006 13.163L19.1162 11.6699L18.1144 12.3304ZM4.90126 13.8235L5.88565 12.3304L4.88377 11.6699L3.89938 13.163L4.90126 13.8235ZM6.60077 9.94251V9.33229H5.40077V9.94251H6.60077ZM18.089 16.5639C14.1024 17.6634 9.89756 17.6634 5.91095 16.5639L5.59191 17.7207C9.78731 18.8778 14.2127 18.8778 18.4081 17.7207L18.089 16.5639ZM5.88565 12.3304C6.35221 11.6226 6.60077 10.7918 6.60077 9.94251H5.40077C5.40077 10.5579 5.22062 11.1589 4.88377 11.6699L5.88565 12.3304ZM17.3992 9.94251C17.3992 10.7918 17.6478 11.6226 18.1144 12.3304L19.1162 11.6699C18.7794 11.1589 18.5992 10.5579 18.5992 9.94251H17.3992ZM3.89938 13.163C2.77954 14.8617 3.62894 17.1793 5.59191 17.7207L5.91095 16.5639C4.74626 16.2427 4.22281 14.8526 4.90126 13.8235L3.89938 13.163ZM19.0987 13.8235C19.7772 14.8526 19.2537 16.2427 18.089 16.5639L18.4081 17.7207C20.3711 17.1793 21.2205 14.8617 20.1006 13.163L19.0987 13.8235ZM12 2.66562C8.34904 2.66562 5.40077 5.65673 5.40077 9.33229H6.60077C6.60077 6.30679 9.0244 3.86563 12 3.86563V2.66562ZM7.58075 18.2075C8.23157 19.9635 9.975 21.199 12 21.199V19.999C10.464 19.999 9.1779 19.0639 8.70596 17.7905L7.58075 18.2075ZM12 21.199C14.025 21.199 15.7684 19.9635 16.4193 18.2075L15.294 17.7905C14.8221 19.0639 13.536 19.999 12 19.999V21.199ZM18.6868 3.19726L15.5757 6.30837L16.4243 7.1569L19.5354 4.04579L18.6868 3.19726ZM16.4243 6.30837L14.6465 4.5306L13.798 5.37913L15.5757 7.1569L16.4243 6.30837Z" fill="#0E0E0E"/>
</g>
</svg>

<svg xmlns="http://www.w3.org/2000/svg" width="24" height="24" fill="none"><path fill="#0E0E0E" d="M18.6 9.332a.6.6 0 1 0-1.2 0zM18.614 12l-.5.33zm.985 1.493-.501.33zm-15.2 0-.5-.33zM5.385 12l-.501-.33zm12.864 5.142-.16-.578zm-12.498 0 .16-.578zM12 3.866a.6.6 0 1 0 0-1.2zM8.706 17.79a.6.6 0 1 0-1.125.416zm7.713.416a.6.6 0 1 0-1.125-.416zm3.116-14.161a.6.6 0 0 0-.848-.849zM16 6.733l-.424.424a.6.6 0 0 0 .848 0zM14.646 4.53a.6.6 0 1 0-.848.848zM17.4 9.332v.61h1.2v-.61zm.715 2.998.985 1.493 1.002-.66-.985-1.493zM4.901 13.823l.985-1.493-1.002-.66-.985 1.493zm1.7-3.88v-.61H5.4v.61zm11.488 6.62a22.9 22.9 0 0 1-12.178 0l-.32 1.158a24.1 24.1 0 0 0 12.817 0zM5.886 12.33A4.34 4.34 0 0 0 6.6 9.943H5.4a3.14 3.14 0 0 1-.517 1.727zm11.513-2.387c0 .849.249 1.68.715 2.387l1.002-.66a3.14 3.14 0 0 1-.517-1.727zm-13.5 3.22c-1.12 1.699-.27 4.016 1.693 4.558l.319-1.157c-1.165-.321-1.688-1.711-1.01-2.74zm15.2.66c.678 1.03.155 2.42-1.01 2.74l.32 1.158c1.962-.542 2.812-2.86 1.692-4.558zM12 2.666c-3.651 0-6.6 2.99-6.6 6.666h1.2c0-3.025 2.424-5.466 5.4-5.466zM7.58 18.208c.652 1.756 2.395 2.991 4.42 2.991v-1.2c-1.536 0-2.822-.935-3.294-2.208zM12 21.199c2.025 0 3.768-1.236 4.42-2.992l-1.126-.416c-.472 1.273-1.758 2.208-3.294 2.208zm6.687-18.002-3.111 3.111.848.849 3.111-3.111zm-2.263 3.111-1.777-1.777-.849.848 1.778 1.778z"/></svg>
